!!!COM: Mozart, Wolfgang Amadeus
!!!CDT: 1756///-1791///
!!!OTP: Viennese Sonatina No. 6 in C-major
!!!OTL: Sonatina in C-major
!!!OMV: No. 1
!!!GNM: No. 6
!!!OMD: Allegro
!!!AIN: piano
**kern	**kern	**dynam
*staff2	*staff1	*staff1/2
*Ipiano	*Ipiano	*Ipiano
*>[A,B,B]	*>[A,B,B]	*>[A,B,B]
*>A	*>A	*>A
*clefF4	*clefG2	*clefG2
*k[]	*k[]	*k[]
*met(C)	*met(C)	*met(C)
*M4/4	*M4/4	*M4/4
*MM132	*MM132	*MM132
=1-	=1-	=1-
4CC/ 4C/	4e/ 4cc/	f
8r	8r	.
8GG/	8g/	.
4CC/ 4C/	4e/ 4cc/	.
8r	8r	.
8GG'/	8g'/	.
=2	=2	=2
8C'\L	8cc'\L	.
8E'\	8ee'\	.
8G'\	8gg'\	.
8E'\J	8ee'\J	.
4C/	4cc\	.
4r	4r	.
=3	=3	=3
8C\L	4g'\ 4ee'\	p
8c'\	.	.
8c'\	2a\ 2ff\	.
8c'\J	.	.
8c'\L	.	.
8c'\	.	.
8c'\	4g'\ 4ee'\	.
8c'\J	.	.
=4	=4	=4
4G'\	(8g/ 8ee/L	.
.	8f/) 8dd/	.
4G'\	8f'/ 8dd'/	.
.	8d'/ 8b'/J	.
(8C\L	4e/ 4cc/	.
8c\)	.	.
8G'\	4r	.
8E'\J	.	.
=5	=5	=5
8C'\L	4ee'\ 4gg'\	mf
8c'\	.	.
8c'\	2ff\ 2aa\	.
8c'\J	.	.
8c'\L	.	.
8c'\	.	.
8c'\	4ee'\ 4gg'\	.
8c'\J	.	.
=6	=6	=6
4G'\	8ee\ (8gg\L	.
.	8dd\ 8ff\)	.
4G'\	8b'\ 8ff'\	.
.	8dd'\J	.
(8C\L	4cc\ 4ee\	.
8c\)	.	.
8G'\	4r	.
8E'\J	.	.
=7	=7	=7
4C/	(8ccc\L	p
.	8gg\)	.
4r	8gg'\	.
.	8gg'\J	.
(8E\L	(4.gg\	.
8e\)	.	.
8e'\	.	.
8e'\J	8gg#\)	.
=8	=8	=8
*	*^	*
4F\	2r	(8aa\L	.
.	.	8dd\)	.
4r	.	8dd'\	.
.	.	8dd'\J	.
(8F\L	(4.dd/	2b\	.
8f\)	.	.	.
8f\	.	.	.
8f'\J	8aa/)	.	.
*	*v	*v	*
=9	=9	=9
8e'\	8.cc\ (8.gg\L	.
8r	.	.
.	16aa\k	.
8f'\	8.dd\ 8.ff\	<
8r	.	.
.	16gg\Jk	.
8g'\	8.cc\ 8.ee\L	.
8r	.	.
.	16ff\k	.
8G'\	8.b\ 8.dd\	.
8r	.	.
.	16ee\Jk	.
=10	=10	=10
4c'^\	4cc\)	f
(8e\L	4r	.
8c\J)	.	.
4A'\	4r	.
(8c\L	4cc\ 4ee\	.
8A\J)	.	.
=11	=11	=11
4F'^\	2cc^\ 2dd^\	.
(8A\L	.	.
8F\J)	.	.
4G'^\	4cc'\ 4ee'\	.
(8B\L	4dd'\ 4ff'\	.
8G\J)	.	.
=12	=12	=12
4c'\	4dd\ (4ff\	.
(8e\L	4cc\ 4ee\)	.
8c\J)	.	.
4A'\	4r	.
(8c\L	4ee'\ 4ccc'\	.
8A\J)	.	.
=13	=13	=13
4F'^\	4ff'\ 4aa'\	.
(8A\L	4cc'\ 4ff'\	.
8F\J)	.	.
4G'^\	4b'\ 4dd'\	.
(8B\L	4dd'\ 4gg'\	.
8G\J)	.	.
=14	=14	=14
4c^\	4cc'^\	.
4r	(8ee\L	mf
.	8cc\J)	.
4F'^\	4a/	.
(8A\L	4r	.
8F\J)	.	.
=15	=15	=15
4D\	4dd'^\	.
4r	(8ff\L	.
.	8dd\J)	.
4G'^\	4b\	.
(8B\L	4r	.
8G\J)	.	.
=16	=16	=16
4E\	4ee'^\	.
4r	(8gg\L	.
.	8ee\J)	.
4A'\	4cc\	.
(8c\L	4r	.
8A\J)	.	.
=17	=17	=17
4F'\	4ff'\	.
4r	(8aa\L	.
.	8ff\J)	.
4D'^\	4dd'\	.
(8F\L	(8ff\L	.
8D\J)	8dd\J)	.
=18	=18	=18
8BB'/L	8b'/L	.
8GG'/	8g'/	.
8AA'/	8a'/	.
8BB'/J	8b'/J	.
8C'/L	8cc'\L	.
8BB'/	8b'\	.
8C'/	8cc'\	.
8D'/J	8dd'\J	.
=19	=19	=19
8E'\L	8ee'\L	.
8D'\	8dd'\	.
8C'\	8cc'\	.
8D'\J	8dd'\J	.
8E'\L	8ee'\L	.
8D'\	8dd'\	.
8E'\	8ee'\	.
8F#'\J	8ff#'\J	.
=20	=20	=20
8G'\	8gg'\	.
8r	8r	.
8GG'/L	4ffn\ (4bb\	.
8G'/J	.	.
8GG'/L	8ee\ 8ccc\)	.
8G'/	8r	.
8GG'/	8cc'\ 8ee'\	.
8G'/J	8r	.
=21	=21	=21
8GG'/L	8b'\ 8dd'\	.
8G'/	8r	.
8GG'/	4ff\ (4bb\	.
8G'/J	.	.
8GG'/L	8ee\ 8ccc\)	.
8G'/	8r	.
8GG'/	8cc'\ 8ee'\	.
8G'/J	8r	.
=22	=22	=22
4GG'/	4b'\ 4dd'\	.
4G\	4b\ 4gg\	f
4GG/	4b\ 4gg\	.
4r	4r	.
=23	=23	=23
2r	(2dd\	p
2e\	2cc#\ 2gg\	.
=24	=24	=24
&(8d'\&)	8dd\ 8ff#\L	.
8r	8aa\	.
8A'\	8cc#\ 8gg\	.
8r	8ee\J	.
8F#'\	4dd\)	.
8r	.	.
8D'\	4r	.
8r	.	.
=25	=25	=25
2r	(2dd\	.
2F#\	2aa\ 2ccc\	.
=26	=26	=26
&(8G'\&)	8gg\ 8bb\L	.
8r	8ddd\	.
8D'\	8ff#\ 8ccc\	.
8r	8aa\J	.
8BB'/	4gg\)	.
8r	.	.
8GG'/	4r	.
8r	.	.
=27	=27	=27
2r	(8ee\L	p
.	8ff#\	.
.	8gg\	.
.	8gg#\J	.
[2c\ 2e\	8aa\L	.
.	8bb\	.
.	8ccc\	.
.	8aa\J	.
=28	=28	=28
*^	*	*
1d	2c\]	8ggn\L	.
.	.	8ff#\	.
.	.	8ee\	.
.	.	8ff#\J	.
.	2B\	8gg\L	.
.	.	8bb\	.
.	.	8gg\	.
.	.	8dd\J)	.
*v	*v	*	*
=29	=29	=29
&(4c\&)	(8ee\L	.
.	8ff#\	.
4r	8gg\	.
.	8gg#\J	.
[2c\ 2e\	8aa\L	.
.	8bb\	.
.	8ccc\	.
.	8aa\J	.
=30	=30	=30
*^	*	*
1d	2c\]	8ggn\L	.
.	.	8ff#\	.
.	.	8ee\	.
.	.	8ff#\J	.
.	2B\	8gg\L	.
.	.	8ddd\	.
.	.	8ccc\	.
.	.	8bb\J)	.
*v	*v	*	*
=31	=31	=31
&(4c\&)	(8bb\L	.
.	8aa\	.
8r	8ccc\	.
8C'\ 8c'\	8aa\J)	.
8D\L	(8aa\L	.
8B\	8gg\	.
8D\	(8gg\)	.
&(8A\J&)	8ff#\J	.
=32	=32	=32
8G\ (8B\L	4gg\)	.
8d\	.	.
8G\ 8B\	8r	.
8d\J	8bb\	f
8G\ 8B\L	8bb'\L	.
8d\	8bb'\	.
8G\ 8B\	8bb'\	.
8d\J)	8bb'\J	.
=33	=33	=33
8F#\ (8A\L	(8ddd\L	>
8d\	8ccc#\	.
8F#\ 8A\	8cccn\	.
8d\J)	8aa\J	.
8D\ (8A\L	8ff#'\L	p
8c\	8ff#'\)	.
8D\ 8A\	8ff#'\	.
8c\J)	8ff#'\J	.
=34	=34	=34
8G\ (8B\L	(8ff#\L	.
8d\	8gg\)	.
8G\ 8B\	8dd'\	.
8d\J	8bb'\J	.
8G\ 8B\L	8bb'\L	f
8d\	8bb'\	.
8G\ 8B\	8bb'\	.
8d\J)	8bb'\J	.
=35	=35	=35
8F#\ (8A\L	(8ddd\L	>
8d\	8ccc#\	.
8F#\ 8A\	8cccn\	.
8d\J)	8aa\J	.
8D\ (8A\L	8ff#'\L)	p
8c\	8ff#'\	.
8D\ 8A\	8ff#'\	.
8c\J	8ff#'\J	.
=36	=36	=36
8G\ 8B\)	8gg\L	f
8r	&(8bb\&)	.
8D'\ 8c'\	8aa'\	.
8r	8ff#'\J	.
8G'\ 8B'\	8gg\L	.
8r	&(8bb\&)	.
8D'\ 8c'\	8aa'\	.
8r	8ff#'\J	.
=37	=37	=37
8G'\ 8B'\	8gg'\	.
8r	8r	.
8G'\	8dd'\ 8bb'\	.
8r	8r	.
8GG'/	8b'\ 8gg'\	.
8r	8r	.
4r	4r	.
=38!|:	=38!|:	=38!|:
*>B	*>B	*>B
2G'\	2gg'\	f
2B-'\	2bb-'\	.
=39	=39	=39
4C#'/	4cc#'\	.
4D'\	4dd'\	.
2r	2r	.
=40	=40	=40
1r	4a'\ 4ff'\	p
.	2b-\ (2gg\	.
.	4a\ 4ff\)	.
=41	=41	=41
4AA'/	8a\ (8ff\L	.
.	8g\ 8ee\)	.
4A'\	8g'\ 8ee'\	.
.	8e'\ 8cc#'\J	.
4D'\	4f'/ 4dd'/	.
4r	4r	.
=42	=42	=42
2F'\	2ff'\	f
2A-'\	2aa-'\	.
=43	=43	=43
4BB'/	4b'\	.
4C'/	4cc'\	.
2r	2r	.
=44	=44	=44
1r	4g'\ 4ee'\	p
.	2a\ (2ff\	.
.	4g\ 4ee\)	.
=45	=45	=45
4GG'/	(8g/ 8ee/L	.
.	8f/) 8dd/	.
4G'\	8f'/ 8dd'/	.
.	8d'/ 8b'/J	.
4C'/	4e'/ 4cc'/	.
4r	4r	.
=46	=46	=46
4A'\ (4c'\	1r	.
2B-\ (2d\)	.	.
4A\ 4c\)	.	.
=47	=47	=47
8A\ 8c\L	[2ccc\	f
8G\ &(8B-\&)	.	.
8G'\ 8B-'\	.	.
8E'\ 8G'\J	.	.
4F\ 4A\	(8ccc\L]	.
.	8bbn\	.
4r	8ccc\	.
.	8bb-\J	.
=48	=48	=48
8r	[2ff\ [2aa\)	.
8FF'/L	.	.
8AA'/	.	.
8C'/J	.	.
4F\	8ff\] (8aa\L]	.
.	8ee\ 8gg#\	.
4r	8ff\ 8aa\	.
.	8ee\ 8ggn\J	.
=49	=49	=49
[2AA/	8dd\ 8ff\L	.
.	8cc#\ 8ee\	.
.	8dd\ 8ff\	.
.	8cc#\ 8ee\J	.
(8AA/L]	4.dd\ 4.ff\)	.
8GG#/	.	.
8AA/	.	.
8GGn/J	8cc#'\ 8ee'\	.
=50	=50	=50
2FF/)	4dd'\	p
.	4a'\ 4ee-'\	.
2FF#/	4a'\ 4dd'\	.
.	4a'\ 4ccn'\	.
=51	=51	=51
4GG'/	4g'/ 4b'/	f
4.G\	4r	.
.	4g'/	f
(8F#\L	.	.
8G\	[4gg\	.
8Fn\J	.	.
=52	=52	=52
*	*^	*
8E\L)	2r	8gg\L]	.
(8D#\	.	8ff#\	.
8E\	.	8gg\	.
8Dn\J	.	8ffn\J	.
4C/	8r	&(4ee\&)	>
.	8ff#/L	.	.
4AA/	8gg/	4cc\	.
.	8ff#/J	.	.
=53	=53	=53	=53
4GG'/)	&(4gg/&)	4b\	f
4.G\	4r	4r	.
.	4r	4g'\	f
(8F#\L	.	.	.
8G\	4r	[4gg\	.
8Fn\J	.	.	.
=54	=54	=54	=54
8E-\L)	2r	8gg\L]	.
(8D\	.	8ff#\	.
8E-\	.	8gg\	.
8D\J	.	8ffn\J	.
4C/	8r	&(4ee-\&)	>
.	8ff#/L	.	.
4AA-/	8gg/	4cc\	.
.	8ff#/J	.	.
*	*v	*v	*
=55	=55	=55
(8GG/L)	8b'\ &(8gg'\&)	.
8G/	8r	.
8GG/	4ffn\ 4bb\	.
8G/J	.	.
8GG/L	8ee\ &(8ccc\&)	.
8G/	8r	.
8GG/	8cc'\ 8ee'\	.
8G/J)	8r	.
=56	=56	=56
(8GG/L	8b'\ 8dd'\	.
8G/	8r	.
8GG/	4ff\ (4bb\	.
8G/J	.	.
8GG/L	8ee\ 8ccc\)	.
8G/	8r	.
8GG/	8cc'\ 8ee'\	.
8G/J)	8r	.
=57	=57	=57
4GG'/	4b'\ 4dd'\	.
4G'\	4b'\ 4gg'\	f
4GG'/	4b'\ 4gg'\	.
4r	4r	.
=58	=58	=58
2r	(2gg\	p
2A\	2ff#\ 2ccc\	.
=59	=59	=59
&(8G'\&)	8gg\ 8bb\L	.
8r	8ddd\	.
8D'\	8ff#\ 8ccc\	.
8r	8aa\J	.
8BB'/	4gg\)	.
8r	.	.
8GG'/	4r	.
8r	.	.
=60	=60	=60
2r	(2g/	.
2B\	2dd\ 2ffn\	.
=61	=61	=61
&(8c'\&)	8cc\ 8ee\L	.
8r	8gg\	.
8G'\	8b\ 8ff\	.
8r	8dd\J	.
8E'\	4cc\)	.
8r	.	.
8C'/	4r	.
8r	.	.
=62	=62	=62
2r	(8dd\L	.
.	8cc#\	.
.	8dd\	.
.	8ee\J	.
[2F\ [2d\	8ff\L	.
.	8ee\	.
.	8ff\	.
.	8gg\J	.
=63	=63	=63
2F\] 2d\]	8gg#\L	<
.	8aa\	.
.	8bb-\	.
.	8bbn\J	.
4E\ 4c\	8ccc\L	>
.	8ggn\	.
4r	8ff\	.
.	8ee\J)	.
=64	=64	=64
2r	(8dd\L	.
.	8cc#\	.
.	8dd\	.
.	8ee\J	.
[2F\ [2d\	8ff\L	.
.	8ee\	.
.	8ff\	.
.	8gg\J	.
=65	=65	=65
2F\] 2d\]	8gg#\L	<
.	8aa\	.
.	8bb-\	.
.	8bbn\J	.
8E\L	8ccc\L	>
8e\	8ggn\	.
8d\	8ff\	.
8c\J	8ee\J	.
=66	=66	=66
*^	*	*
&(4A/&)	4F\	8ee\L	.
.	.	8dd\	.
8r	4F\	8aa\	.
8d/	.	8ff\J	.
8c/L	4G\	8ee\L	.
8e/	.	8gg\	.
8d/	4G\	8ff\	.
8B/J	.	8dd\J	.
*v	*v	*	*
*clefG2	*	*
=67	=67	=67
(8c/ &(8e/L&)	4cc\)	.
8g/	.	.
8c/ 8e/	8r	.
8g/J	8ee'\	f
8c/ 8e/L	8ee'\L	.
8g/	8ee'\	.
8c/ 8e/	8ee'\	.
8g/J)	8ee'\J	.
=68	=68	=68
(8B/ 8d/ 8f/L	(8gg\L	>
8g/	8ff#\	.
8B/ 8d/ 8f/	8ffn\)	.
8g/J	8bb'\J	.
8G/ 8d/L	8bb\L	p
8f/	8bb'\	.
8G/ 8d/	8bb'\	.
8f/J)	8bb'\J	.
=69	=69	=69
(8c/ 8e/L	(8bb\L	.
8g/	8ccc\)	.
8c/ 8e/	8gg'\	.
8g/J	8ee'\J	.
8c/ 8e/L	8ee'\L	f
8g/	8ee'\	.
8c/ 8e/	8ee'\	.
8g/J)	8ee'\J	.
=70	=70	=70
(8B/ 8d/ 8f/L	(8gg\L	>
8g/	8ff#\	.
8B/ 8d/ 8f/	8ffn\	.
8g/J	8dd\J	.
8G/ 8d/L	8b'\L)	.
8f/	8b'\	p
8G/ 8d/	8b'\	.
8f/J)	8b'\J	.
*clefF4	*	*
=71	=71	=71
8c'\ 8e'\	(8cc\L	f
8r	8ee\)	.
8G'\ 8f'\	8dd'\	.
8r	8b'\J	.
8c'\ 8e'\	(8cc\L	.
8r	8ee\)	.
8G'\ 8f'\	8dd'\	.
8r	8b'\J	.
=72	=72	=72
8c'\ 8e'\	8cc'\	.
8r	8r	.
8C'\ 8c'\	8g'\ 8ee'\	.
8r	8r	.
8CC'/ 8C'/	8e'/ 8cc'/	.
8r	8r	.
4r	4r	.
==:|!	==:|!	==:|!
*-	*-	*-
!!!ENC: Craig Stuart Sapp
!!!END: 2004/11/17/
